src/components/crossDevice/SwitchDevice/assets/cross-device-small-icon.svg

<?xml version="1.0" encoding="UTF-8" standalone="no"?>
<svg width="42px" height="48px" viewBox="0 0 42 48" version="1.1" xmlns="http://www.w3.org/2000/svg" xmlns:xlink="http://www.w3.org/1999/xlink">
    <!-- Generator: Sketch 46.2 (44496) - http://www.bohemiancoding.com/sketch -->
    <title>cross-device-small-icon</title>
    <desc>Created with Sketch.</desc>
    <defs>
        <rect id="path-1" x="0" y="0" width="28" height="48" rx="4"></rect>
        <circle id="path-2" cx="14" cy="43" r="2"></circle>
        <path d="M2,-1.82839905e-15 L30,1.10433735e-14 L30,1.24344979e-14 C31.1045695,1.02694822e-14 32,0.8954305 32,2 L32,18 L32,18 C32,19.1045695 31.1045695,20 30,20 L2,20 L2,20 C0.8954305,20 1.3527075e-16,19.1045695 0,18 L0,2 L-1.11022302e-15,2 C-1.24549377e-15,0.8954305 0.8954305,-3.34980755e-15 2,-3.55271368e-15 Z" id="path-3"></path>
    </defs>
    <g id="Symbols" stroke="none" stroke-width="1" fill="none" fill-rule="evenodd">
        <g id="icons/cross-device/mobile-use" transform="translate(-8.000000, -12.000000)">
            <g id="cross-device-small-icon" transform="translate(7.000000, 12.000000)">
                <g id="icons/mobile/small" transform="translate(15.000000, 0.000000)">
                    <g id="mobile" transform="translate(-0.000000, 0.000000)">
                        <g id="Rectangle-5">
                            <use fill="#FFFFFF" fill-rule="evenodd" xlink:href="#path-1"></use>
                            <rect stroke="#2C3E4F" stroke-width="2" x="1" y="1" width="26" height="46" rx="4"></rect>
                        </g>
                        <rect id="Rectangle-4" fill="#2C3E4F" x="9" y="4" width="10" height="1" rx="0.5"></rect>
                        <g id="Oval">
                            <use fill="#FFFFFF" fill-rule="evenodd" xlink:href="#path-2"></use>
                            <circle stroke="#2C3E4F" stroke-width="1" cx="14" cy="43" r="1.5"></circle>
                        </g>
                    </g>
                </g>
                <g id="id-card" transform="translate(19.368684, 23.901745) rotate(-15.000000) translate(-19.368684, -23.901745) translate(2.868684, 12.901745)">
                    <g id="icons/id-card" transform="translate(0.211657, 0.817780)">
                        <g id="id-card" transform="translate(0.000000, 1.000000)">
                            <g id="container">
                                <use fill="#FFFFFF" fill-rule="evenodd" xlink:href="#path-3"></use>
                                <path stroke="#283E4F" stroke-width="1" d="M2,0.5 C1.17157288,0.5 0.5,1.17157288 0.5,2 L0.5,18 C0.5,18.8284271 1.17157288,19.5 2,19.5 L30,19.5 C30.8284271,19.5 31.5,18.8284271 31.5,18 L31.5,2 C31.5,1.17157288 30.8284271,0.5 30,0.5 L2,0.5 Z"></path>
                            </g>
                            <g id="inset" transform="translate(16.000000, 5.000000)" fill="#283E4F">
                                <rect id="Rectangle" x="0" y="6" width="13" height="1" rx="0.5"></rect>
                                <rect id="Rectangle-Copy" x="3" y="3" width="10" height="1" rx="0.5"></rect>
                                <rect id="Rectangle-Copy-2" x="5" y="0" width="2" height="1" rx="0.5"></rect>
                                <rect id="Rectangle-Copy-3" x="8" y="0" width="2" height="1" rx="0.5"></rect>
                                <rect id="Rectangle-Copy-4" x="11" y="0" width="2" height="1" rx="0.5"></rect>
                            </g>
                            <g id="body" transform="translate(2.000000, 14.000000)" stroke="#283E4F" stroke-width="1.20000005">
                                <path d="M11.0742251,4.39999998 C9.88650623,2.03104807 7.99453539,0.600000024 5.97080049,0.600000024 C4.02201232,0.600000024 2.15032108,2.04925975 0.938564144,4.39999998 L11.0742251,4.39999998 Z" id="Oval-2"></path>
                            </g>
                            <g id="face" transform="translate(2.617647, 1.400000)" stroke="#283E4F">
                                <path d="M5.38235294,11.1 C7.72845912,11.1 9.88235294,8.4522511 9.88235294,5.73333333 C9.88235294,3.17151192 7.86464652,1.1 5.38235294,1.1 C3.73158637,1.1 2.23679347,2.02311952 1.44722596,3.48395069 C1.07860412,4.16596237 0.882352941,4.93436589 0.882352941,5.73333333 C0.882352941,8.4522511 3.03624677,11.1 5.38235294,11.1 Z" id="Oval"></path>
                            </g>
                        </g>
                    </g>
                </g>
                <rect id="mobile-left-frame" fill="#283E4F" x="15" y="12" width="2" height="31"></rect>
                <rect id="overlay" fill-opacity="0.670000017" fill="#FFFFFF" x="17" y="10" width="24" height="27"></rect>
                <rect id="mobile-screen-frame" stroke="#FFFFFF" x="17.5" y="10.5" width="23" height="26"></rect>
            </g>
        </g>
    </g>
</svg>

<?xml version="1.0" encoding="UTF-8"?>
<svg version="1.1" viewBox="0 0 42 48" xmlns="http://www.w3.org/2000/svg" xmlns:xlink="http://www.w3.org/1999/xlink">
<title>cross-device-small-icon</title>
<desc>Created with Sketch.</desc>
<defs>
<rect id="c" width="28" height="48" rx="4"/>
<circle id="b" cx="14" cy="43" r="2"/>
<path id="a" d="m2-1.8284e-15 28 1.2872e-14v1.3911e-15c1.1046-2.165e-15 2 0.89543 2 2v16c0 1.1046-0.89543 2-2 2h-28c-1.1046 0-2-0.89543-2-2v-16h-1.1102e-15c-1.3527e-16 -1.1046 0.89543-2 2-2z"/>
</defs>
<g fill="none" fill-rule="evenodd">
<g transform="translate(-8 -12)">
<g transform="translate(7 12)">
<g transform="translate(15)">
<g transform="translate(-0)">
<use fill="#FFFFFF" fill-rule="evenodd" xlink:href="#c"/>
<rect x="1" y="1" width="26" height="46" rx="4" stroke="#2C3E4F" stroke-width="2"/>
<rect x="9" y="4" width="10" height="1" rx=".5" fill="#2C3E4F"/>
<g id="e">
<use fill="#FFFFFF" fill-rule="evenodd" xlink:href="#b"/>
<circle cx="14" cy="43" r="1.5" stroke="#2C3E4F"/>
</g>
</g>
</g>
<g id="d" transform="translate(19.369 23.902) rotate(-15) translate(-16.5 -11)">
<g transform="translate(.21166 .81778)">
<g transform="translate(0 1)">
<use fill="#FFFFFF" fill-rule="evenodd" xlink:href="#a"/>
<path d="m2 0.5c-0.82843 0-1.5 0.67157-1.5 1.5v16c0 0.82843 0.67157 1.5 1.5 1.5h28c0.82843 0 1.5-0.67157 1.5-1.5v-16c0-0.82843-0.67157-1.5-1.5-1.5h-28z" stroke="#283E4F"/>
<g transform="translate(16 5)" fill="#283E4F">
<rect y="6" width="13" height="1" rx=".5"/>
<rect x="3" y="3" width="10" height="1" rx=".5"/>
<rect x="5" width="2" height="1" rx=".5"/>
<rect x="8" width="2" height="1" rx=".5"/>
<rect x="11" width="2" height="1" rx=".5"/>
</g>
<g transform="translate(2 14)" stroke="#283E4F" stroke-width="1.2">
<path d="m11.074 4.4c-1.1877-2.369-3.0797-3.8-5.1034-3.8-1.9488 0-3.8205 1.4493-5.0322 3.8h10.136z"/>
</g>
<g transform="translate(2.6176 1.4)" stroke="#283E4F">
<path d="m5.3824 11.1c2.3461 0 4.5-2.6477 4.5-5.3667 0-2.5618-2.0177-4.6333-4.5-4.6333-1.6508 0-3.1456 0.92312-3.9351 2.384-0.36862 0.68201-0.56487 1.4504-0.56487 2.2494 0 2.7189 2.1539 5.3667 4.5 5.3667z"/>
</g>
</g>
</g>
</g>
<rect x="15" y="12" width="2" height="31" fill="#283E4F"/>
<rect x="17" y="10" width="24" height="27" fill="#fff" fill-opacity=".67"/>
<rect x="17.5" y="10.5" width="23" height="26" stroke="#fff"/>
</g>
</g>
</g>
</svg>
